X:39
T:Cassis de Maurice
M:6/8
L:1/8
R:Jig
C: Gris Sanderson
Q:400
N:My father was a fiddle maker in Scotland and for a while he 
N:had a very talented French apprentice with whom I kept in 
N:touch and visited at his home near Cognac from time to time. 
N:One of his best friends and neighbours is Maurice Dupont, 
N:the famous guitar-maker. Maurice's father, Maurice Dupont 
N:the elder, makes fantastic cassis and I wrote this jig in France 
N:after a fair at which a good quantity of this delicious and 
N:potent liqueur was consumed.
K:Dmix
|:GFDC2G-|GFC DCA,|GFD CDA,|G,A,C DEF|
|1GFDC2G-|GFC DCA,|G,A,C DEF|GAB cBA:||
|2GFC D2d-|dcA cA=F|GAG~ =F3|EDE GEC||
|: D2d ege|dAd ege|aeg eae|gea ged|
D2d ege|dAd cA=F|GAd cA=F|GAc AGE:||
